X: 2
T: Joe Tam's
T: Joe Tom's
M: 4/4
L: 1/8
R: reel
K: Edor
~E2 BE cEBE | ~E2 DB, A,B,DF | ~E2 BE cEBE | cdAG FEDF |
DEBE cEBE | ~E2 DB, A,B,DF | EFGB Acde |[1 faed cAFD :|[2 faed cAFA ||
~B3 e fB ~B2 | cBAF Bcde | f2 ba faaf | .g/.f/e fd efga |
bf ~f2 affa | fegf edcA | ~B3 c dcde |[1 fded cAFA :|[2 fded cAFD |]
&quot;variations bar #7 &amp; 8 (repeat)&quot; EFGA Bcde | faed cAdc |]
